src/Pure/16/symbolic/actions/format-text-larger-symbolic.svg

<?xml version="1.0" encoding="UTF-8" standalone="no"?>
<svg
   height="16"
   width="16"
   version="1.1"
   id="svg1"
   sodipodi:docname="format-text-larger-symbolic.svg"
   inkscape:version="1.4.2 (ebf0e940d0, 2025-05-08)"
   xmlns:inkscape="http://www.inkscape.org/namespaces/inkscape"
   xmlns:sodipodi="http://sodipodi.sourceforge.net/DTD/sodipodi-0.dtd"
   xmlns="http://www.w3.org/2000/svg"
   xmlns:svg="http://www.w3.org/2000/svg">
  <defs
     id="defs1">
    <style
      id="current-color-scheme"
      type="text/css">
      .ColorScheme-Text { color:#363636; }
    </style>
  </defs>
  <sodipodi:namedview
     id="namedview1"
     pagecolor="#ffffff"
     bordercolor="#000000"
     borderopacity="0.25"
     inkscape:showpageshadow="2"
     inkscape:pageopacity="0.0"
     inkscape:pagecheckerboard="0"
     inkscape:deskcolor="#d1d1d1"
     inkscape:zoom="49.6875"
     inkscape:cx="8"
     inkscape:cy="8"
     inkscape:window-width="1920"
     inkscape:window-height="1010"
     inkscape:window-x="0"
     inkscape:window-y="0"
     inkscape:window-maximized="1"
     inkscape:current-layer="svg1" />
  <path
     id="path1"
     style="fill:currentColor"
     class="ColorScheme-Text"
     d="M 6.875 2 L 2.25 14 L 1.09375 14 L 1.09375 15 L 4.6875 15 L 4.6875 14 L 3.34375 14 L 4.4375 11 L 9.90625 11 L 10.96875 14 L 9.6875 14 L 9.6875 15 L 14.28125 15 L 14.28125 14 L 13 14 L 8.34375 2 L 6.875 2 z M 7.15625 4.09375 L 9.5625 10 L 4.78125 10 L 7.15625 4.09375 z " />
</svg>

<svg height="16" width="16" xmlns="http://www.w3.org/2000/svg"><path d="M6.875 2L2.25 14H1.094v1h3.593v-1H3.344l1.093-3h5.469l1.063 3H9.687v1h4.594v-1H13L8.344 2zm.281 2.094L9.562 10H4.781z" fill="#363636" font-family="DejaVu Serif" font-size="17.833" font-weight="400" letter-spacing="0" overflow="visible" style="line-height:125%;-inkscape-font-specification:'DejaVu Serif';marker:none" word-spacing="0" color="#363636"/></svg>
